!!!OTL: Die Schlangenkoechin 'Oh, where have you been,
!!!ARE: Nord - America, USA, Neuengland
!!!YOR: 4, S. 215
!!    1939 gedruckt
!!!SCT: Q2079X
!!!YEM: Copyright 1995, estate of Helmut Schaffrath.
**kern
*ICvox
*Ivox
*M3/4
*k[f#]
*G:
{8g
8a
=1
4b
4b
4b
=2
4b
4a}
{8a
8b
=3
4cc
4cc
4cc
=4
4cc
4b}
{8g
8b
=5
4dd
4ee
4dd
=6
4dd
4b}
{4g
=7
4a
4b
4a
=8
2g}
{8g
8a
=9
4b
4b
4b
=10
4b
4a}
{8a
8b
=11
4cc
4cc
4cc
=12
4cc
4b}
{8g
8b
=13
4dd
4ee
4dd
=14
4dd
4b}
{4g
=15
4.a
8g
4a
=16
2g}
==
!!!AGN: Ballade, Mord; Reigen - Tanz, antiphonal
!! Amerikanische Fassung der Ballade.
!!    Zweite und sechste Zeile = Refrain.
!!!ONB: ESAC (Essen Associative Code) Database: BALLADE
!!!AMT: simple triple
!!!AIN: vox
!!!EED: Helmut Schaffrath
!!!EEV: 1.0
*-
